sources/design/Outline/്ര.svg

<svg:svg xmlns:cc="http://creativecommons.org/ns#" xmlns:dc="http://purl.org/dc/elements/1.1/" xmlns:inkscape="http://www.inkscape.org/namespaces/inkscape" xmlns:rdf="http://www.w3.org/1999/02/22-rdf-syntax-ns#" xmlns:sodipodi="http://sodipodi.sourceforge.net/DTD/sodipodi-0.dtd" xmlns:svg="http://www.w3.org/2000/svg" xml:space="preserve" width="1000" height="1000" version="1.1" style="clip-rule:evenodd;fill-rule:evenodd;image-rendering:optimizeQuality;shape-rendering:geometricPrecision;text-rendering:geometricPrecision" viewBox="0 0 1000 1000" id="svg10" sodipodi:docname="്ര.svg" inkscape:version="1.0.2 (e86c870879, 2021-01-15)"><svg:metadata id="metadata14"><rdf:RDF><cc:Work rdf:about=""><dc:format>image/svg+xml</dc:format><dc:type rdf:resource="http://purl.org/dc/dcmitype/StillImage" /><dc:title /></cc:Work></rdf:RDF></svg:metadata><sodipodi:namedview pagecolor="#ffffff" bordercolor="#666666" borderopacity="1" objecttolerance="10" gridtolerance="10" guidetolerance="10" inkscape:pageopacity="0" inkscape:pageshadow="2" inkscape:window-width="1920" inkscape:window-height="1009" id="namedview12" showgrid="false" inkscape:zoom="0.84890884" inkscape:cx="323.30025" inkscape:cy="613.48904" inkscape:window-x="1920" inkscape:window-y="0" inkscape:window-maximized="1" inkscape:current-layer="svg10" showguides="true" inkscape:guide-bbox="true" inkscape:document-rotation="0" inkscape:pagecheckerboard="0"><sodipodi:guide position="0,1000" orientation="0,1" id="guide16" inkscape:label="" inkscape:locked="true" inkscape:color="rgb(0,0,255)" /><sodipodi:guide position="1763.3122,2036.1693" orientation="1000,0" id="guide18" /><sodipodi:guide position="0,200" orientation="0,1" id="guide20" inkscape:label="base" inkscape:locked="true" inkscape:color="rgb(0,0,255)" /><inkscape:grid type="xygrid" id="grid24" originx="-473.37552" originy="-489.69235" /><sodipodi:guide position="0,0" orientation="0,1" id="guide34" inkscape:label="bottom" inkscape:locked="true" inkscape:color="rgb(0,0,255)" /><sodipodi:guide position="225.05109,1693.3186" orientation="0,1" id="guide44" inkscape:label="" inkscape:locked="false" inkscape:color="rgb(0,0,255)" /><sodipodi:guide position="0,900" orientation="0,1" id="guide46" inkscape:label="" inkscape:locked="true" inkscape:color="rgb(0,0,255)" /><sodipodi:guide position="209.31771,569.39168" orientation="-1,0" id="guide840" inkscape:label="width" inkscape:locked="false" inkscape:color="rgb(0,0,255)" /></sodipodi:namedview>
 <svg:defs id="defs4"><inkscape:path-effect effect="fillet_chamfer" id="path-effect842" is_visible="true" lpeversion="1" satellites_param="F,0,0,1,0,20.281513,0,1 @ F,0,0,1,0,0,0,1 @ F,0,0,1,0,0,0,1 @ F,0,0,1,0,0,0,1 @ F,0,0,1,0,16.221753,0,1 @ F,0,0,1,0,15.936538,0,1 @ F,0,0,1,0,0,0,1 @ F,0,0,1,0,0,0,1 @ F,0,0,1,0,0,0,1 @ F,0,0,1,0,0,0,1 @ F,0,0,1,0,20.281513,0,1" unit="px" method="auto" mode="F" radius="0" chamfer_steps="1" flexible="false" use_knot_distance="true" apply_no_radius="true" apply_with_radius="true" only_selected="true" hide_knots="false" /><inkscape:path-effect effect="fillet_chamfer" id="path-effect841" is_visible="true" lpeversion="1" satellites_param="F,0,0,1,0,34.191671,0,1 @ F,0,0,1,0,0,0,1 @ F,0,0,1,0,0,0,1 @ F,0,0,1,0,0,0,1 @ F,0,0,1,0,15.861028,0,1 @ F,0,0,1,0,19.067719,0,1 @ F,0,0,1,0,0,0,1 @ F,0,0,1,0,0,0,1 @ F,0,0,1,0,0,0,1 @ F,0,0,1,0,0,0,1 @ F,0,0,1,0,26.231605,0,1" unit="px" method="auto" mode="F" radius="0" chamfer_steps="1" flexible="false" use_knot_distance="true" apply_no_radius="true" apply_with_radius="true" only_selected="true" hide_knots="false" />
  <svg:style type="text/css" id="style2">
   
    .fil0 {fill:#EF7F1A;fill-rule:nonzero}
   
  </svg:style>
 <inkscape:path-effect effect="spiro" id="path-effect1214" is_visible="true" lpeversion="1" /><inkscape:path-effect effect="spiro" id="path-effect1195" is_visible="true" lpeversion="1" /></svg:defs>
 
<svg:g id="path933-9-3-62-3-6"><svg:path style="color:#000000;clip-rule:nonzero;fill:#1a5fb4;fill-rule:nonzero;stroke-linecap:round;stroke-linejoin:round;-inkscape-stroke:none;paint-order:fill stroke markers;shape-rendering:auto" d="M 66.683594,74.082031 C 45.200861,73.183399 24.001911,88.624199 19.716797,110.26563 C 12.61505,146.1321 6.0496009,182.10484 0.02539063,218.16797 C -22.210933,351.28274 -37.552733,489.13026 -18.972656,626.57422 C -4.839032600000001,731.1260599999999 31.111390999999998,839.14606 109.22852,917.6035199999999 C 134.38872,942.8733299999999 163.28924,964.2959699999999 194.73437,981.0527299999999 C 219.81145,994.4160299999999 252.48255,980.9540299999999 262.30078000000003,955.3632799999999 L 295.09180000000003,869.8945299999999 C 299.87406000000004,857.4297999999999 299.24098000000004,841.57827 291.86328000000003,829.5566399999999 C 284.48558,817.5350199999999 271.98920000000004,810.42982 259.63281000000006,808.1699199999999 C 225.05163000000005,801.8452699999999 192.13923000000005,783.3459799999999 169.14258000000007,757.01172 C 146.72665000000006,731.34245 132.24689000000006,697.38896 124.80273000000007,661.39453 C 117.32552000000007,625.2402400000001 116.49643000000006,586.6162800000001 117.73828000000007,546.95312 C 120.83330000000008,448.10182000000003 135.87227000000007,349.73184000000003 166.29492000000008,256.57031 C 176.74876000000006,224.55812 189.01970000000009,193.13422 203.02539000000007,162.50781 C 208.11702000000008,151.37389000000002 208.57249000000007,137.60781 203.22852000000006,126.02148 C 197.88454000000007,114.43516 186.93154000000007,105.71284 174.99219000000005,102.46484 L 75.859375,75.496094 C 72.82733,74.671251 69.752556,74.210407 66.683594,74.082031 M 75.589844,137.60352 L 140.64648,155.30273 C 128.93535,182.35562 118.40934,209.91917 109.25780999999999,237.94335999999998 C 76.77987199999998,337.39868 61.01367799999999,441.39964 57.76757799999999,545.07617 C 56.46443599999999,586.69696 57.05373699999999,630.06271 66.046875,673.54687 C 75.073076,717.19091 92.87152,760.8926 123.94727,796.47852 C 152.72149000000002,829.42888 191.20221,852.72093 233.22266000000002,863.65039 L 211.13281,921.2265600000001 C 189.53821,908.41449 169.43914,893.03966 151.74609,875.26953 C 86.736281,809.97649 53.527848,715.01023 40.486328,618.53711 C 23.21461,490.77159 37.347163,358.90221 59.205078,228.05273 C 64.253728,197.82967 69.771458,167.68791 75.589844,137.60352" id="path15601" /></svg:g></svg:svg>

<svg:svg xmlns:cc="http://creativecommons.org/ns#" xmlns:dc="http://purl.org/dc/elements/1.1/" xmlns:inkscape="http://www.inkscape.org/namespaces/inkscape" xmlns:rdf="http://www.w3.org/1999/02/22-rdf-syntax-ns#" xmlns:sodipodi="http://sodipodi.sourceforge.net/DTD/sodipodi-0.dtd" xmlns:svg="http://www.w3.org/2000/svg" xml:space="preserve" width="1000" height="1000" version="1.1" style="clip-rule:evenodd;fill-rule:evenodd;image-rendering:optimizeQuality;shape-rendering:geometricPrecision;text-rendering:geometricPrecision" viewBox="0 0 1000 1000" id="svg10" sodipodi:docname="്ര.svg" inkscape:version="1.0.2 (e86c870879, 2021-01-15)"><svg:metadata id="metadata14"><rdf:RDF><cc:Work rdf:about=""><dc:format>image/svg+xml</dc:format><dc:type rdf:resource="http://purl.org/dc/dcmitype/StillImage" /><dc:title /></cc:Work></rdf:RDF></svg:metadata><sodipodi:namedview pagecolor="#ffffff" bordercolor="#666666" borderopacity="1" objecttolerance="10" gridtolerance="10" guidetolerance="10" inkscape:pageopacity="0" inkscape:pageshadow="2" inkscape:window-width="1920" inkscape:window-height="1009" id="namedview12" showgrid="false" inkscape:zoom="0.84890884" inkscape:cx="323.30025" inkscape:cy="613.48904" inkscape:window-x="1920" inkscape:window-y="0" inkscape:window-maximized="1" inkscape:current-layer="svg10" showguides="true" inkscape:guide-bbox="true" inkscape:document-rotation="0" inkscape:pagecheckerboard="0"><sodipodi:guide position="0,1000" orientation="0,1" id="guide16" inkscape:label="" inkscape:locked="true" inkscape:color="rgb(0,0,255)" /><sodipodi:guide position="1763.3122,2036.1693" orientation="1000,0" id="guide18" /><sodipodi:guide position="0,200" orientation="0,1" id="guide20" inkscape:label="base" inkscape:locked="true" inkscape:color="rgb(0,0,255)" /><inkscape:grid type="xygrid" id="grid24" originx="-473.37552" originy="-489.69235" /><sodipodi:guide position="0,0" orientation="0,1" id="guide34" inkscape:label="bottom" inkscape:locked="true" inkscape:color="rgb(0,0,255)" /><sodipodi:guide position="225.05109,1693.3186" orientation="0,1" id="guide44" inkscape:label="" inkscape:locked="false" inkscape:color="rgb(0,0,255)" /><sodipodi:guide position="0,900" orientation="0,1" id="guide46" inkscape:label="" inkscape:locked="true" inkscape:color="rgb(0,0,255)" /><sodipodi:guide position="209.31771,569.39168" orientation="-1,0" id="guide840" inkscape:label="width" inkscape:locked="false" inkscape:color="rgb(0,0,255)" /></sodipodi:namedview>
 <svg:defs id="defs4"><inkscape:path-effect effect="fillet_chamfer" id="path-effect842" is_visible="true" lpeversion="1" satellites_param="F,0,0,1,0,20.281513,0,1 @ F,0,0,1,0,0,0,1 @ F,0,0,1,0,0,0,1 @ F,0,0,1,0,0,0,1 @ F,0,0,1,0,16.221753,0,1 @ F,0,0,1,0,15.936538,0,1 @ F,0,0,1,0,0,0,1 @ F,0,0,1,0,0,0,1 @ F,0,0,1,0,0,0,1 @ F,0,0,1,0,0,0,1 @ F,0,0,1,0,20.281513,0,1" unit="px" method="auto" mode="F" radius="0" chamfer_steps="1" flexible="false" use_knot_distance="true" apply_no_radius="true" apply_with_radius="true" only_selected="true" hide_knots="false" /><inkscape:path-effect effect="fillet_chamfer" id="path-effect841" is_visible="true" lpeversion="1" satellites_param="F,0,0,1,0,34.191671,0,1 @ F,0,0,1,0,0,0,1 @ F,0,0,1,0,0,0,1 @ F,0,0,1,0,0,0,1 @ F,0,0,1,0,15.861028,0,1 @ F,0,0,1,0,19.067719,0,1 @ F,0,0,1,0,0,0,1 @ F,0,0,1,0,0,0,1 @ F,0,0,1,0,0,0,1 @ F,0,0,1,0,0,0,1 @ F,0,0,1,0,26.231605,0,1" unit="px" method="auto" mode="F" radius="0" chamfer_steps="1" flexible="false" use_knot_distance="true" apply_no_radius="true" apply_with_radius="true" only_selected="true" hide_knots="false" />
  <svg:style type="text/css" id="style2">
   
    .fil0 {fill:#EF7F1A;fill-rule:nonzero}
   
  </svg:style>
 <inkscape:path-effect effect="spiro" id="path-effect1214" is_visible="true" lpeversion="1" /><inkscape:path-effect effect="spiro" id="path-effect1195" is_visible="true" lpeversion="1" /></svg:defs>
 
<svg:g id="path933-9-3-62-3-6"><svg:path style="color:#000000;clip-rule:nonzero;fill:#1a5fb4;fill-rule:nonzero;stroke-linecap:round;stroke-linejoin:round;-inkscape-stroke:none;shape-rendering:auto" d="M 66.683594,74.082031 C 45.200861,73.183399 24.001911,88.624199 19.716797,110.26563 12.61505,146.1321 6.0496009,182.10484 0.02539063,218.16797 -22.210933,351.28274 -37.552733,489.13026 -18.972656,626.57422 c 14.1336234,104.55184 50.084047,212.57184 128.201176,291.0293 25.1602,25.26981 54.06072,46.69245 85.50585,63.44921 25.07708,13.3633 57.74818,-0.0987 67.56641,-25.68945 l 32.79102,-85.46875 c 4.78226,-12.46473 4.14918,-28.31626 -3.22852,-40.33789 -7.3777,-12.02162 -19.87408,-19.12682 -32.23047,-21.38672 -34.58118,-6.32465 -67.49358,-24.82394 -90.49023,-51.1582 -22.41593,-25.66927 -36.89569,-59.62276 -44.33985,-95.61719 -7.47721,-36.15429 -8.3063,-74.77825 -7.06445,-114.44141 3.09502,-98.8513 18.13399,-197.22128 48.55664,-290.38281 10.45384,-32.01219 22.72478,-63.43609 36.73047,-94.0625 5.09163,-11.13392 5.5471,-24.9 0.20313,-36.48633 -5.34398,-11.58632 -16.29698,-20.30864 -28.23633,-23.55664 L 75.859375,75.496094 C 72.82733,74.671251 69.752556,74.210407 66.683594,74.082031 Z m 8.90625,63.521489 65.056636,17.69921 c -11.71113,27.05289 -22.23714,54.61644 -31.38867,82.64063 -32.477938,99.45532 -48.244132,203.45628 -51.490232,307.13281 -1.303142,41.62079 -0.713841,84.98654 8.279297,128.4707 9.026201,43.64404 26.824645,87.34573 57.900395,122.93165 28.77422,32.95036 67.25494,56.24241 109.27539,67.17187 l -22.08985,57.57617 C 189.53821,908.41449 169.43914,893.03966 151.74609,875.26953 86.736281,809.97649 53.527848,715.01023 40.486328,618.53711 23.21461,490.77159 37.347163,358.90221 59.205078,228.05273 c 5.04865,-30.22306 10.56638,-60.36482 16.384766,-90.44921 z" id="path15565" /></svg:g></svg:svg>
